X: 312
T: Á Perpignan
R: jig
M: 6/8
K: Edorian
~B3 cBc|dcd ecA|de/f/a gfe|def ecA|
~d3 ecA|GAB AFA|dd/e/f ecA|1 GEA FGA:|2 GEA GFD||
E2F GFE|G2A BGE|A2B =cBA|=c2d e3|
[1 ~g3 age|ged dgf|efd eBd|ABG AGF:|
[2 g2a e2a|gfe d2d|efd edB|ADE FGA||

